X:1
T:Tom Mahon's
M:6/8
L:1/8
B:McGuire & Keegan - "Irish Tunes by the 100" (1975, No. 99)
K:G
B|"G"ded "D7"AcB|"G"G3-GFG|"D"ABA "D7"FAF|D3- DEF|
"C"GFG EFG|"D"BAG "D7"FGA|"G"Bed "D7"AcB|"G"G3-G2:|
|:B|"G"dBd gdg|b3 "D7"a2f|"C"gfe "D7"afd|"C"efd "G"B2d|
dBd gdg|b3 "D7"a2f|"C"gfe "D7"afd|"C"e3-e2:|]

